X:10
T:Castle Kelly
S:Bernie Waugh
R:Reel
M:4/4
L:1/8
K:A minor
EG|:\
"Am"A2cA- "F"ABcA|"Em"GcEG- G2EG|"Am"A2cA "Em"GAcd|"F"ecdB ~cAAG|
"Am"A2cA- "F"ABcA|"Em"GcEG- G2EG|"Am"A2cA "Em"GAcd|"F"ecdB ~cAA2:|
|:\
"Dm"agec dfed|"G"cAGE G3g|"Dm"agec "G"~d2cd|"A"eaag- gaba|
"Em"gedc dfed|"F"cAGE G2EG|"Am"A2cA "Em"GAcd|1\
"Am"ecdB ~cAA2:|2\
"Am"ecdB ~cA|]

